wp-content/themes/wptheme-lfb-0.2/dist/images/eephus-nitro-color.svg

<svg width="95" height="88" xmlns="http://www.w3.org/2000/svg"><g fill="none" fill-rule="evenodd"><path d="M47.325 86.731L2 45.493V1h90.65v44.493L47.325 86.73" fill="#FDF8E6"/><path d="M50.993 35.899a16.482 16.482 0 0 1-2.896 5.375c3.933 1.782 16.169 7.991 28.08 20.78l4.797-4.342c-12.811-14.044-26.088-20.21-29.981-21.813" fill="#DE443E"/><path d="M51.528 27.884a16.37 16.37 0 0 1-.14 6.555c3.752 1.525 17.485 7.787 30.697 22.267l4.131-3.738C71.585 36.701 56.168 29.724 51.528 27.884" fill="#DE443E"/><path d="M47.046 42.446a16.582 16.582 0 0 1-11.753 4.922 16.53 16.53 0 0 1-14.506-8.59c-4.377-7.991-1.436-18.053 6.555-22.428a16.528 16.528 0 0 1 7.922-2.035 16.532 16.532 0 0 1 14.507 8.589 16.706 16.706 0 0 1 1.343 3.234c.032.007.064.002.095.014 3.29 1.218 20.191 8.101 36.119 25.81l7.27-6.58V.825H.472v44.557l47.063 42.595L75.03 63.093C62.374 49.584 49.306 43.444 47.046 42.446" fill="#DE443E"/><path d="M42.197 31.99c.183-.437.388-.872.613-1.293a.75.75 0 0 0-.311-1.015.749.749 0 0 0-1.015.309c-.246.463-.472.941-.672 1.421a.75.75 0 1 0 1.385.578m1.604-3.394c.22 0 .436-.094.585-.278.299-.37.619-.728.95-1.066a.75.75 0 0 0-.01-1.061.75.75 0 0 0-1.061.009c-.365.372-.717.767-1.046 1.173a.751.751 0 0 0 .582 1.223m-3.03 5.233a.75.75 0 0 0-.888.582 16.927 16.927 0 0 0-.247 1.552.752.752 0 0 0 .746.834.75.75 0 0 0 .746-.668c.051-.47.129-.946.225-1.412a.751.751 0 0 0-.582-.888m-.496 4.467a.75.75 0 0 0-.688.809c.042.522.109 1.046.2 1.559a.752.752 0 0 0 .871.609.75.75 0 0 0 .607-.871 14.89 14.89 0 0 1-.182-1.418.754.754 0 0 0-.808-.688M46.67 24.18a.751.751 0 0 0 .852 1.238c.392-.271.8-.525 1.214-.756.063-.035.109-.086.157-.134.23-.232.3-.588.133-.887a.743.743 0 0 0-.781-.367.725.725 0 0 0-.24.077c-.455.254-.904.532-1.335.829m-5.609 18.541a.75.75 0 0 0-.431.969c.131.338.288.671.441 1.005.067.143.121.292.192.434a.75.75 0 0 0 1.344-.668c-.066-.134-.117-.275-.18-.411-.138-.297-.279-.596-.396-.898a.749.749 0 0 0-.97-.431m2.77-10.356a.752.752 0 0 0-.961.45c-.18.491-.337.996-.467 1.5a.75.75 0 1 0 1.454.376c.118-.459.261-.916.423-1.364a.75.75 0 0 0-.449-.962m-.986 8.842a.753.753 0 0 0-.567.899c.115.507.256 1.017.421 1.515a.753.753 0 0 0 .948.477.75.75 0 0 0 .478-.948c-.017-.049-.026-.102-.042-.153a15.357 15.357 0 0 1-.341-1.224.75.75 0 0 0-.897-.566m5.537-15.892c-.418.318-.823.658-1.205 1.012a.75.75 0 1 0 1.019 1.101c.347-.321.715-.629 1.095-.918a.735.735 0 0 0 .248-.374.734.734 0 0 0-.322-.869.748.748 0 0 0-.835.048m-5.679 11.4a.76.76 0 0 0-.797.701 16.885 16.885 0 0 0-.026 1.572.752.752 0 0 0 .75.727h.024a.75.75 0 0 0 .727-.773 14.758 14.758 0 0 1 .023-1.428.752.752 0 0 0-.701-.799m2.38-8.046a16.87 16.87 0 0 0-.868 1.31.75.75 0 1 0 1.29.769c.242-.406.508-.806.79-1.192a.75.75 0 1 0-1.212-.887M27.82 18.191c.227.42.434.854.617 1.289a.75.75 0 1 0 1.384-.583 17.17 17.17 0 0 0-.678-1.417.75.75 0 0 0-.223-.248.742.742 0 0 0-.793-.058.748.748 0 0 0-.389.692.755.755 0 0 0 .082.325m1.698 5.424a.751.751 0 0 0 .744.669c.029 0 .057-.003.086-.005a.752.752 0 0 0 .662-.831 16.675 16.675 0 0 0-.25-1.553.75.75 0 1 0-1.469.309c.097.466.174.941.227 1.411m.077 6.592a.747.747 0 0 0-.968.435c-.171.446-.363.887-.571 1.311a.748.748 0 0 0 .672 1.082.752.752 0 0 0 .674-.417c.23-.468.441-.952.628-1.442a.751.751 0 0 0-.435-.969m-3.039 4.176c-.286.377-.594.746-.918 1.097a.75.75 0 0 0 1.104 1.016c.356-.387.697-.793 1.01-1.207a.75.75 0 1 0-1.196-.906m3.816-8.603a.762.762 0 0 0-.808.691c-.037.472-.098.949-.18 1.418a.75.75 0 1 0 1.479.259c.09-.514.157-1.039.198-1.56a.753.753 0 0 0-.689-.808m-5.97 12.813a.751.751 0 1 0-.89-1.21c-.383.283-.783.549-1.19.793-.039.023-.063.06-.096.088a.739.739 0 0 0 .483 1.306.75.75 0 0 0 .296-.083c.029-.012.061-.007.089-.024a16.67 16.67 0 0 0 1.308-.87m2.84-14.961a14.987 14.987 0 0 1 .024 1.428.752.752 0 0 0 .727.774h.024a.75.75 0 0 0 .75-.727 16.849 16.849 0 0 0-.027-1.572.756.756 0 0 0-.797-.701.753.753 0 0 0-.701.798m-.457-2.817a.753.753 0 0 0 .917.537.753.753 0 0 0 .536-.919 16.616 16.616 0 0 0-.472-1.5.751.751 0 0 0-1.408.519c.163.445.307.903.427 1.363m-4.089 16.604c.404-.327.797-.681 1.171-1.05a.75.75 0 1 0-1.054-1.068c-.34.335-.697.656-1.064.954a.747.747 0 0 0-.272.505c-.02.192.033.39.164.551.046.056.107.088.164.128a.749.749 0 0 0 .418.149.738.738 0 0 0 .473-.169m5.109-10.094a.752.752 0 0 0-.896.568 15.28 15.28 0 0 1-.379 1.379.753.753 0 0 0 .714.984.75.75 0 0 0 .714-.52c.162-.495.302-1.006.416-1.514a.751.751 0 0 0-.569-.897m-1.098 5.293a.75.75 0 1 0-1.314-.726c-.23.417-.484.827-.75 1.217a.749.749 0 0 0 .618 1.175c.24 0 .476-.114.621-.327.293-.43.571-.88.825-1.339" fill="#DE443E"/></g></svg>

<?xml version="1.0" encoding="UTF-8" standalone="no"?>
<svg width="95px" height="88px" viewBox="0 0 95 88" version="1.1" xmlns="http://www.w3.org/2000/svg" xmlns:xlink="http://www.w3.org/1999/xlink" xmlns:sketch="http://www.bohemiancoding.com/sketch/ns">
    <!-- Generator: Sketch 3.3.3 (12081) - http://www.bohemiancoding.com/sketch -->
    <title>eephus-colour</title>
    <desc>Created with Sketch.</desc>
    <defs></defs>
    <g id="Page-1" stroke="none" stroke-width="1" fill="none" fill-rule="evenodd" sketch:type="MSPage">
        <g id="eephus-colour" sketch:type="MSArtboardGroup">
            <g id="beer-eephus" sketch:type="MSLayerGroup">
                <path d="M47.3247097,86.7314608 L2,45.4927745 L2,1 L92.6498387,1 L92.6498387,45.4927745 L47.3247097,86.7314608" id="Imported-Layers-Copy" fill="#FDF8E6" sketch:type="MSShapeGroup"></path>
                <path d="M50.993,35.899 C50.355,37.882 49.379,39.699 48.097,41.274 C52.03,43.056 64.266,49.265 76.177,62.054 L80.974,57.712 C68.163,43.668 54.886,37.502 50.993,35.899" id="Fill-1" fill="#DE443E" sketch:type="MSShapeGroup"></path>
                <path d="M51.528,27.884 C51.923,30.039 51.878,32.258 51.388,34.439 C55.14,35.964 68.873,42.226 82.085,56.706 L86.216,52.968 C71.585,36.701 56.168,29.724 51.528,27.884" id="Fill-2" fill="#DE443E" sketch:type="MSShapeGroup"></path>
                <path d="M47.046,42.446 C45.93,43.575 44.646,44.55 43.215,45.334 C40.785,46.664 38.046,47.368 35.293,47.368 C29.247,47.368 23.688,44.077 20.787,38.778 C16.41,30.787 19.351,20.725 27.342,16.35 C29.772,15.018 32.511,14.315 35.264,14.315 C41.311,14.315 46.869,17.606 49.771,22.904 C50.34,23.944 50.782,25.029 51.114,26.138 C51.146,26.145 51.178,26.14 51.209,26.152 C54.499,27.37 71.4,34.253 87.328,51.962 L94.598,45.382 L94.598,0.825 L0.472,0.825 L0.472,45.382 L47.535,87.977 L75.03,63.093 C62.374,49.584 49.306,43.444 47.046,42.446" id="Fill-3" fill="#DE443E" sketch:type="MSShapeGroup"></path>
                <path d="M42.197,31.99 C42.38,31.553 42.585,31.118 42.81,30.697 C43.005,30.33 42.865,29.875 42.499,29.682 C42.133,29.486 41.678,29.625 41.484,29.991 C41.238,30.454 41.012,30.932 40.812,31.412 C40.652,31.794 40.833,32.234 41.216,32.393 C41.311,32.432 41.408,32.452 41.505,32.452 C41.798,32.452 42.077,32.277 42.197,31.99" id="Fill-4" fill="#DE443E" sketch:type="MSShapeGroup"></path>
                <path d="M43.801,28.596 C44.021,28.596 44.237,28.502 44.386,28.318 C44.685,27.948 45.005,27.59 45.336,27.252 C45.626,26.957 45.623,26.482 45.326,26.191 C45.031,25.9 44.556,25.904 44.265,26.2 C43.9,26.572 43.548,26.967 43.219,27.373 C42.958,27.695 43.007,28.168 43.33,28.43 C43.469,28.541 43.636,28.596 43.801,28.596" id="Fill-5" fill="#DE443E" sketch:type="MSShapeGroup"></path>
                <path d="M40.771,33.829 C40.365,33.744 39.968,34.005 39.883,34.411 C39.777,34.922 39.694,35.444 39.636,35.963 C39.59,36.375 39.887,36.746 40.299,36.793 C40.327,36.795 40.355,36.797 40.382,36.797 C40.76,36.797 41.085,36.514 41.128,36.129 C41.179,35.659 41.257,35.183 41.353,34.717 C41.437,34.311 41.177,33.914 40.771,33.829" id="Fill-6" fill="#DE443E" sketch:type="MSShapeGroup"></path>
                <path d="M40.275,38.296 C39.862,38.329 39.554,38.691 39.587,39.105 C39.629,39.627 39.696,40.151 39.787,40.664 C39.852,41.028 40.169,41.284 40.526,41.284 C40.569,41.284 40.613,41.28 40.658,41.273 C41.066,41.2 41.338,40.81 41.265,40.402 C41.182,39.936 41.121,39.459 41.083,38.984 C41.05,38.57 40.692,38.273 40.275,38.296" id="Fill-7" fill="#DE443E" sketch:type="MSShapeGroup"></path>
                <path d="M46.67,24.18 C46.329,24.414 46.242,24.883 46.478,25.225 C46.623,25.435 46.858,25.549 47.096,25.549 C47.243,25.549 47.392,25.506 47.522,25.418 C47.914,25.147 48.322,24.893 48.736,24.662 C48.799,24.627 48.845,24.576 48.893,24.528 C49.123,24.296 49.193,23.94 49.026,23.641 C48.866,23.355 48.549,23.221 48.245,23.274 C48.163,23.288 48.081,23.308 48.005,23.351 C47.55,23.605 47.101,23.883 46.67,24.18" id="Fill-8" fill="#DE443E" sketch:type="MSShapeGroup"></path>
                <path d="M41.061,42.721 C40.674,42.869 40.481,43.304 40.63,43.69 C40.761,44.028 40.918,44.361 41.071,44.695 C41.138,44.838 41.192,44.987 41.263,45.129 C41.394,45.392 41.659,45.545 41.936,45.545 C42.048,45.545 42.162,45.52 42.27,45.467 C42.641,45.282 42.792,44.832 42.607,44.461 C42.541,44.327 42.49,44.186 42.427,44.05 C42.289,43.753 42.148,43.454 42.031,43.152 C41.882,42.764 41.447,42.571 41.061,42.721" id="Fill-9" fill="#DE443E" sketch:type="MSShapeGroup"></path>
                <path d="M43.831,32.365 C43.441,32.227 43.011,32.424 42.87,32.815 C42.69,33.306 42.533,33.811 42.403,34.315 C42.299,34.717 42.54,35.127 42.942,35.23 C43.005,35.247 43.068,35.254 43.13,35.254 C43.464,35.254 43.769,35.029 43.857,34.691 C43.975,34.232 44.118,33.775 44.28,33.327 C44.422,32.937 44.22,32.506 43.831,32.365" id="Fill-10" fill="#DE443E" sketch:type="MSShapeGroup"></path>
                <path d="M42.845,41.207 C42.44,41.299 42.187,41.702 42.278,42.106 C42.393,42.613 42.534,43.123 42.699,43.621 C42.724,43.696 42.761,43.765 42.805,43.825 C42.946,44.019 43.172,44.136 43.412,44.136 C43.49,44.136 43.569,44.125 43.647,44.098 C44.041,43.968 44.255,43.543 44.125,43.15 C44.108,43.101 44.099,43.048 44.083,42.997 C43.954,42.593 43.836,42.182 43.742,41.773 C43.651,41.368 43.249,41.116 42.845,41.207" id="Fill-11" fill="#DE443E" sketch:type="MSShapeGroup"></path>
                <path d="M48.382,25.315 C47.964,25.633 47.559,25.973 47.177,26.327 C46.873,26.607 46.854,27.082 47.135,27.387 C47.283,27.547 47.484,27.628 47.686,27.628 C47.868,27.628 48.052,27.563 48.196,27.428 C48.543,27.107 48.911,26.799 49.291,26.51 C49.419,26.412 49.494,26.278 49.539,26.136 C49.61,25.911 49.588,25.659 49.434,25.459 C49.373,25.378 49.298,25.315 49.217,25.267 C48.962,25.116 48.631,25.125 48.382,25.315" id="Fill-12" fill="#DE443E" sketch:type="MSShapeGroup"></path>
                <path d="M42.703,36.715 C42.292,36.7 41.933,37.003 41.906,37.416 C41.884,37.767 41.873,38.119 41.873,38.473 C41.873,38.644 41.875,38.816 41.88,38.988 C41.893,39.394 42.227,39.715 42.63,39.715 L42.654,39.715 C43.069,39.702 43.394,39.355 43.381,38.942 C43.376,38.785 43.374,38.628 43.374,38.473 C43.374,38.151 43.384,37.831 43.404,37.514 C43.431,37.099 43.117,36.743 42.703,36.715" id="Fill-13" fill="#DE443E" sketch:type="MSShapeGroup"></path>
                <path d="M45.083,28.669 C44.774,29.092 44.482,29.531 44.215,29.979 C44.002,30.334 44.119,30.795 44.475,31.008 C44.595,31.079 44.728,31.113 44.859,31.113 C45.114,31.113 45.364,30.984 45.505,30.748 C45.747,30.342 46.013,29.942 46.295,29.556 C46.54,29.222 46.468,28.752 46.132,28.507 C45.799,28.262 45.329,28.334 45.083,28.669" id="Fill-14" fill="#DE443E" sketch:type="MSShapeGroup"></path>
                <path d="M27.82,18.191 C28.047,18.611 28.254,19.045 28.437,19.48 C28.558,19.768 28.837,19.939 29.13,19.939 C29.227,19.939 29.325,19.921 29.421,19.881 C29.803,19.72 29.982,19.279 29.821,18.897 C29.618,18.418 29.391,17.942 29.143,17.48 C29.088,17.377 29.009,17.298 28.92,17.232 C28.694,17.068 28.389,17.032 28.127,17.174 C27.865,17.315 27.728,17.589 27.738,17.866 C27.743,17.977 27.765,18.087 27.82,18.191" id="Fill-15" fill="#DE443E" sketch:type="MSShapeGroup"></path>
                <path d="M29.518,23.615 C29.561,24 29.886,24.284 30.262,24.284 C30.291,24.284 30.319,24.281 30.348,24.279 C30.76,24.233 31.056,23.86 31.01,23.448 C30.952,22.93 30.867,22.406 30.76,21.895 C30.675,21.491 30.277,21.233 29.87,21.315 C29.465,21.4 29.205,21.799 29.291,22.204 C29.388,22.67 29.465,23.145 29.518,23.615" id="Fill-16" fill="#DE443E" sketch:type="MSShapeGroup"></path>
                <path d="M29.595,30.207 C29.207,30.056 28.774,30.254 28.627,30.642 C28.456,31.088 28.264,31.529 28.056,31.953 C27.872,32.325 28.025,32.775 28.397,32.957 C28.504,33.01 28.616,33.035 28.728,33.035 C29.005,33.035 29.272,32.881 29.402,32.618 C29.632,32.15 29.843,31.666 30.03,31.176 C30.177,30.787 29.982,30.354 29.595,30.207" id="Fill-17" fill="#DE443E" sketch:type="MSShapeGroup"></path>
                <path d="M26.556,34.383 C26.27,34.76 25.962,35.129 25.638,35.48 C25.358,35.785 25.377,36.26 25.682,36.54 C25.826,36.674 26.009,36.738 26.19,36.738 C26.393,36.738 26.595,36.659 26.742,36.496 C27.098,36.109 27.439,35.703 27.752,35.289 C28.003,34.959 27.937,34.488 27.607,34.238 C27.277,33.988 26.805,34.053 26.556,34.383" id="Fill-18" fill="#DE443E" sketch:type="MSShapeGroup"></path>
                <path d="M30.372,25.78 C29.959,25.762 29.596,26.057 29.564,26.471 C29.527,26.943 29.466,27.42 29.384,27.889 C29.312,28.297 29.585,28.686 29.993,28.758 C30.038,28.765 30.081,28.769 30.124,28.769 C30.482,28.769 30.799,28.512 30.863,28.148 C30.953,27.634 31.02,27.109 31.061,26.588 C31.094,26.175 30.784,25.814 30.372,25.78" id="Fill-19" fill="#DE443E" sketch:type="MSShapeGroup"></path>
                <path d="M24.402,38.593 C24.736,38.347 24.808,37.877 24.562,37.543 C24.316,37.209 23.846,37.137 23.512,37.383 C23.129,37.666 22.729,37.932 22.322,38.176 C22.283,38.199 22.259,38.236 22.226,38.264 C21.957,38.497 21.875,38.889 22.065,39.205 C22.205,39.44 22.454,39.57 22.709,39.57 C22.81,39.57 22.908,39.53 23.005,39.487 C23.034,39.475 23.066,39.48 23.094,39.463 C23.541,39.196 23.981,38.902 24.402,38.593" id="Fill-20" fill="#DE443E" sketch:type="MSShapeGroup"></path>
                <path d="M27.242,23.632 C27.263,23.955 27.274,24.28 27.274,24.602 C27.274,24.755 27.272,24.909 27.266,25.06 C27.254,25.476 27.58,25.821 27.993,25.834 L28.017,25.834 C28.421,25.834 28.755,25.514 28.767,25.107 C28.772,24.94 28.775,24.772 28.775,24.602 C28.775,24.246 28.763,23.89 28.74,23.535 C28.714,23.121 28.358,22.817 27.943,22.834 C27.529,22.862 27.216,23.219 27.242,23.632" id="Fill-21" fill="#DE443E" sketch:type="MSShapeGroup"></path>
                <path d="M26.785,20.815 C26.874,21.152 27.179,21.375 27.511,21.375 C27.574,21.375 27.638,21.368 27.702,21.352 C28.103,21.246 28.343,20.836 28.238,20.433 C28.105,19.928 27.946,19.422 27.766,18.933 C27.623,18.544 27.191,18.346 26.803,18.488 C26.414,18.631 26.214,19.062 26.358,19.452 C26.521,19.897 26.665,20.355 26.785,20.815" id="Fill-22" fill="#DE443E" sketch:type="MSShapeGroup"></path>
                <path d="M22.696,37.419 C23.1,37.092 23.493,36.738 23.867,36.369 C24.163,36.078 24.166,35.604 23.875,35.308 C23.583,35.012 23.108,35.008 22.813,35.301 C22.473,35.636 22.116,35.957 21.749,36.255 C21.589,36.386 21.496,36.569 21.477,36.76 C21.457,36.952 21.51,37.15 21.641,37.311 C21.687,37.367 21.748,37.399 21.805,37.439 C21.932,37.526 22.073,37.588 22.223,37.588 C22.389,37.588 22.557,37.534 22.696,37.419" id="Fill-23" fill="#DE443E" sketch:type="MSShapeGroup"></path>
                <path d="M27.805,27.325 C27.401,27.236 26.999,27.49 26.909,27.893 C26.805,28.357 26.677,28.82 26.53,29.272 C26.402,29.666 26.618,30.09 27.011,30.219 C27.089,30.244 27.167,30.256 27.244,30.256 C27.56,30.256 27.855,30.055 27.958,29.736 C28.12,29.241 28.26,28.73 28.374,28.222 C28.464,27.816 28.21,27.416 27.805,27.325" id="Fill-24" fill="#DE443E" sketch:type="MSShapeGroup"></path>
                <path d="M26.707,32.618 C26.908,32.256 26.776,31.799 26.413,31.598 C26.05,31.397 25.593,31.53 25.393,31.892 C25.163,32.309 24.909,32.719 24.643,33.109 C24.408,33.452 24.496,33.918 24.839,34.152 C24.968,34.241 25.116,34.284 25.261,34.284 C25.501,34.284 25.737,34.17 25.882,33.957 C26.175,33.527 26.453,33.077 26.707,32.618" id="Fill-25" fill="#DE443E" sketch:type="MSShapeGroup"></path>
            </g>
        </g>
    </g>
</svg>
